dist/svg/u1F923.svg

<?xml version="1.0" encoding="UTF-8"?><svg id="Layer_1" xmlns="http://www.w3.org/2000/svg" viewBox="0 0 40 40"><g><circle cx="20" cy="20" r="17.5" style="fill:#ffc84d;"/><path id="SVGID" d="M10.48751,25.51742c-.65892,.19541-.92635,1.00225-.51067,1.54958,3.69734,4.86833,10.52239,6.34419,15.95521,3.20755,5.43277-3.13661,7.56716-9.78521,5.19974-15.42136-.26616-.63366-1.09862-.80547-1.59731-.33254-2.40915,2.28472-5.43939,4.54808-8.91393,6.55411-3.47453,2.00602-6.94983,3.49863-10.13304,4.44266Z" style="fill:#ff6d00;"/><path d="M22.0482,23.67112c3.55227-2.0509,6.06417-5.29001,7.44115-9.11546-2.4031,2.27277-5.41234,4.52351-8.86883,6.51911-3.51485,2.0293-7.0304,3.53296-10.24378,4.47503,4.01971,.73554,8.10227,.18199,11.67146-1.87868Z" style="fill:#fff;"/><path d="M15.6976,16.4874c.53283,.92289-1.05264,3.44823-2.79076,5.3675-.23964,.26462-.66331,.13107-.59451-.18851l.52494-2.43833c.1585-.73624-.22649-1.40297-.94338-1.63375l-2.37481-.76449c-.31119-.10018-.21505-.53387,.13395-.60912,2.53135-.54578,5.51168-.65629,6.04457,.2667Z"/><path d="M19.1092,14.51772c.53283,.92289,3.51257,.8125,6.04377,.26688,.34898-.07523,.44516-.50891,.134-.60911l-2.37412-.76455c-.71686-.23085-1.10177-.89763-.94318-1.63387l.52534-2.43889c.06884-.31958-.35482-.45317-.59448-.18856-1.73833,1.91933-3.3242,4.44512-2.79132,5.3681Z"/><g><path d="M11.6808,28.82601c-.23595,1.38379-1.54902,2.3143-2.93281,2.07835-1.38379-.23595-2.3143-1.54902-2.07835-2.93281,.23595-1.38379,3.60418-6.01569,3.60418-6.01569,0,0,1.64293,5.48636,1.40698,6.87015Z" style="fill:#fff;"/><path d="M31.6616,16.66557c1.35383,.37107,2.75214-.42562,3.12322-1.77945,.37107-1.35383-.42562-2.75214-1.77945-3.12322-1.35383-.37107-6.97531,.72363-6.97531,.72363,0,0,4.27771,3.80796,5.63154,4.17903Z" style="fill:#fff;"/></g></g><rect y="0" width="40" height="40" style="fill:none;"/></svg>

<svg id="Layer_1" data-name="Layer 1" xmlns="http://www.w3.org/2000/svg" viewBox="0 0 40 40"><defs><style>.cls-1{fill:#ffc84d;}.cls-2{fill:#ff6d00;}.cls-3{fill:#fff;}.cls-4{fill:none;}</style></defs><circle class="cls-1" cx="20" cy="20" r="17.5"/><path id="SVGID" class="cls-2" d="M10.488,25.517a1,1,0,0,0-.511,1.55A12.313,12.313,0,0,0,31.132,14.853a1,1,0,0,0-1.6-.332,47.78,47.78,0,0,1-8.913,6.554A47.755,47.755,0,0,1,10.488,25.517Z"/><path class="cls-3" d="M22.048,23.671a16.969,16.969,0,0,0,7.441-9.115,47.782,47.782,0,0,1-8.868,6.519A47.651,47.651,0,0,1,10.377,25.55,16.979,16.979,0,0,0,22.048,23.671Z"/><path d="M15.7,16.487c.532.923-1.053,3.449-2.791,5.368-.24.265-.663.131-.6-.189l.525-2.438a1.363,1.363,0,0,0-.943-1.634L9.519,16.83c-.311-.1-.215-.534.134-.609C12.184,15.675,15.165,15.564,15.7,16.487Z"/><path d="M19.109,14.518c.533.923,3.513.812,6.044.267.349-.076.445-.509.134-.61l-2.374-.764a1.363,1.363,0,0,1-.943-1.634L22.5,9.338c.069-.319-.355-.453-.594-.188C20.162,11.069,18.576,13.6,19.109,14.518Z"/><path class="cls-3" d="M11.681,28.826a2.542,2.542,0,0,1-5.011-.854c.236-1.384,3.6-6.016,3.6-6.016S11.917,27.442,11.681,28.826Z"/><path class="cls-3" d="M31.662,16.666a2.542,2.542,0,0,0,1.343-4.9c-1.353-.371-6.975.724-6.975.724S30.308,16.294,31.662,16.666Z"/><rect class="cls-4" width="40" height="40"/></svg>
